dist/svg/static/lights-full-beam-small.svg

<svg xmlns="http://www.w3.org/2000/svg" width="24" height="24" viewBox="0 0 24 24"><path d="M0 15.5h7m-7-4h7m-7-4h7m16.5 4c0-3.413-7.033-6.42-11.147-8.046-1.47-.582-2.853.124-2.853 1.607v12.878c0 1.483 1.382 2.19 2.853 1.607C16.467 17.92 23.5 14.913 23.5 11.5z" fill="none" stroke="currentColor" stroke-miterlimit="10"/></svg>

<?xml version="1.0" encoding="UTF-8" standalone="no"?>
<svg width="24px" height="24px" viewBox="0 0 24 24" version="1.1" xmlns="http://www.w3.org/2000/svg" xmlns:xlink="http://www.w3.org/1999/xlink">
    <!-- Generator: sketchtool 46.2 (44496) - http://www.bohemiancoding.com/sketch -->
    <title>lights-full-beam-small</title>
    <desc>Created with sketchtool.</desc>
    <defs></defs>
    <g id="icons-published" stroke="none" stroke-width="1" fill="none" fill-rule="evenodd">
        <g id="briefing" transform="translate(-1220.000000, -922.000000)"></g>
        <g id="lights-full-beam-small" stroke="#000000">
            <path d="M0,15.5 L7,15.5 L0,15.5 Z M0,11.5 L7,11.5 L0,11.5 Z M0,7.5 L7,7.5 L0,7.5 Z M23.5,11.5 C23.5,8.1 16.5,5.1 12.4,3.5 C10.9,2.9 9.5,3.6 9.5,5.1 L9.5,18 C9.5,19.5 10.9,20.2 12.4,19.6 C16.5,17.9 23.5,14.9 23.5,11.5 Z" id="Shape"></path>
        </g>
    </g>
</svg>
